packages/gestalt-icons-android/vr-theme/ic_vr_star_gestalt.svg

<svg width="24" height="24" viewBox="0 0 24 24" fill="none" xmlns="http://www.w3.org/2000/svg">
<path d="M11.0236 1.6512C11.3847 0.782933 12.6147 0.782933 12.9759 1.6512L15.635 8.04442L22.537 8.59775C23.4743 8.6729 23.8544 9.8427 23.1403 10.4545L17.8816 14.959L19.4882 21.6942C19.7064 22.6089 18.7113 23.3319 17.9088 22.8417L11.9997 19.2325L6.09064 22.8417C5.28812 23.3319 4.29303 22.6089 4.51123 21.6942L6.11782 14.959L0.859209 10.4545C0.145032 9.8427 0.525122 8.6729 1.46249 8.59775L8.36451 8.04442L11.0236 1.6512Z" fill="black"/>
</svg>

<svg xmlns="http://www.w3.org/2000/svg" width="24" height="24"><path d="M11.02 1.65c.36-.87 1.6-.87 1.96 0l2.65 6.4 6.9.55c.94.07 1.32 1.24.61 1.85l-5.26 4.5 1.6 6.74c.23.92-.77 1.64-1.57 1.15L12 19.24l-5.9 3.6c-.81.5-1.8-.23-1.59-1.15l1.6-6.73-5.25-4.5a1.06 1.06 0 0 1 .6-1.86l6.9-.56z"/></svg>
